kora-light/actions/scalable/cm_runterm.svg

<svg xmlns="http://www.w3.org/2000/svg" width="16" height="16" version="1.1" viewBox="0 0 16 16">
 <defs>
  <style id="current-color-scheme" type="text/css">
   .ColorScheme-Text { color:#444444; } .ColorScheme-Highlight { color:#4285f4; }
  </style>
 </defs>
 <path style="fill:currentColor" class="ColorScheme-Text" d="M 2,1 C 0.89200005,1 4.9999999e-8,1.892 4.9999999e-8,3 V 13 C 4.9999999e-8,14.108 0.89200005,15 2,15 h 12 c 1.108,0 2,-0.892 2,-2 V 3 C 16,1.892 15.108,1 14,1 Z m 2,2 h 0.9999999 v 1 h 0.5 c 0.654,0 1.2022,0.418 1.4082,1 h -1.9082 v 1 h 0.5 c 0.831,0 1.5,0.669 1.5,1.5 0,0.831 -0.669,1.5 -1.5,1.5 h -0.5 v 1 H 4 V 9 H 3.5 C 2.8458,9 2.2978,8.582 2.0918,8 H 4 V 7 H 3.5 C 2.669,7 2,6.331 2,5.5 2,4.669 2.669,4 3.5,4 H 4 Z M 3.5,5 C 3.223,5 3,5.223 3,5.5 3,5.777 3.223,6 3.5,6 H 4 V 5 Z m 1.4999999,2 v 1 h 0.5 c 0.2767,0.0129 0.5,-0.223 0.5,-0.5 0,-0.277 -0.223,-0.5 -0.5,-0.5 z m 3,2 H 12 v 1 H 7.9999999 Z"/>
</svg>

<svg xmlns="http://www.w3.org/2000/svg" style="fill-rule:evenodd;clip-rule:evenodd;stroke-linejoin:round;stroke-miterlimit:2" width="100%" height="100%" version="1.1" viewBox="0 0 16 16" xml:space="preserve">
 <defs>
  <style id="current-color-scheme" type="text/css">
   .ColorScheme-Text { color:#444444; } .ColorScheme-Highlight { color:#4285f4; } .ColorScheme-NeutralText { color:#ff9800; } .ColorScheme-PositiveText { color:#4caf50; } .ColorScheme-NegativeText { color:#f44336; }
  </style>
 </defs>
 <path style="fill:currentColor;fill-opacity:0.3" class="ColorScheme-Text" d="M2,1c-1.108,0 -2,0.892 -2,2l0,10c0,1.108 0.892,2 2,2l12,0c1.108,0 2,-0.892 2,-2l0,-10c0,-1.108 -0.892,-2 -2,-2l-12,0Z"/>
 <path style="fill:currentColor;" class="ColorScheme-Text" d="M8,9l4,0l0,1l-4,0l-0,-1Zm-4,-6l1,0l-0,1l0.5,0c0.654,0 1.202,0.418 1.408,1l-1.908,0l-0,1l0.5,0c0.831,0 1.5,0.669 1.5,1.5c-0,0.831 -0.669,1.5 -1.5,1.5l-0.5,0l-0,1l-1,0l0,-1l-0.5,0c-0.654,0 -1.202,-0.418 -1.408,-1l1.908,0l0,-1l-0.5,0c-0.831,0 -1.5,-0.669 -1.5,-1.5c0,-0.831 0.669,-1.5 1.5,-1.5l0.5,0l0,-1Zm1,4l-0,1l0.5,0c0.277,0.013 0.5,-0.223 0.5,-0.5c-0,-0.277 -0.223,-0.5 -0.5,-0.5l-0.5,0Zm-1.5,-2c-0.277,0 -0.5,0.223 -0.5,0.5c0,0.277 0.223,0.5 0.5,0.5l0.5,0l0,-1l-0.5,0Z"/>
</svg>
